Newaita-dark/actions/22/network-disconnect.svg

<svg height="22" viewBox="0 0 22 22" width="22" xmlns="http://www.w3.org/2000/svg"><path d="m10.914062 1.992188c-5.039062 0-9.09375 4.054687-9.09375 9.09375 0 5.039062 4.054688 9.097656 9.09375 9.097656 5.039063 0 9.097657-4.058594 9.097657-9.097656 0-5.039063-4.058594-9.09375-9.097657-9.09375zm0 1.816406c.515626 0 1.015626.054687 1.5.15625.410157.820312.75 1.679687 1.015626 2.574218h-5.027344c.261718-.894531.605468-1.753906 1.011718-2.574218.484376-.101563.988282-.15625 1.5-.15625zm-2.703124.515625c-.3125.714843-.578126 1.453125-.789063 2.214843h-2.195313c.777344-.976562 1.804688-1.742187 2.984376-2.214843zm5.410156 0c1.179687.472656 2.203125 1.238281 2.984375 2.214843h-2.199219c-.210938-.761718-.472656-1.5-.785156-2.214843zm-9.015625 3.125h2.589843c-.222656 1.027343-.355468 2.09375-.382812 3.183593h-3.160156c.070312-1.15625.410156-2.238281.953125-3.183593zm3.558593 0h5.503907c.238281 1.023437.378906 2.089843.40625 3.183593h-6.320313c.03125-1.09375.171875-2.160156.410156-3.183593zm6.46875 0h2.589844c.546875.945312.882813 2.027343.957032 3.183593h-3.160157c-.027343-1.089843-.160156-2.15625-.386719-3.183593zm-10.980468 4.09375h3.160156c.027344 1.089843.160156 2.152343.382812 3.183593h-2.589843c-.542969-.945312-.882813-2.027343-.953125-3.183593zm4.101562 0h6.320313c-.027344 1.09375-.167969 2.15625-.40625 3.183593h-5.503907c-.238281-1.027343-.378906-2.089843-.410156-3.183593zm7.265625 0h3.160157c-.074219 1.15625-.410157 2.238281-.957032 3.183593h-2.589844c.226563-1.03125.359376-2.09375.386719-3.183593zm-9.792969 4.09375h2.195313c.210937.757812.476563 1.5.789063 2.210937-1.179688-.46875-2.207032-1.238281-2.984376-2.210937zm3.175782 0h5.027344c-.265626.894531-.605469 1.753906-1.015626 2.574219-.484374.101562-.984374.152343-1.5.152343-.511718 0-1.015624-.050781-1.5-.152343-.40625-.820313-.75-1.679688-1.011718-2.574219zm6.003906 0h2.199219c-.78125.972656-1.804688 1.742187-2.984375 2.210937.3125-.710937.574218-1.453125.785156-2.210937zm0 0" fill="#e0e0e0" fill-opacity=".392157"/></svg>

<svg xmlns="http://www.w3.org/2000/svg" xmlns:xlink="http://www.w3.org/1999/xlink" width="22px" height="22px" viewBox="0 0 22 22" version="1.1">
<g id="surface1">
<path style=" stroke:none;fill-rule:nonzero;fill:rgb(87.843138%,87.843138%,87.843138%);fill-opacity:0.392157;" d="M 10.914062 1.992188 C 5.875 1.992188 1.820312 6.046875 1.820312 11.085938 C 1.820312 16.125 5.875 20.183594 10.914062 20.183594 C 15.953125 20.183594 20.011719 16.125 20.011719 11.085938 C 20.011719 6.046875 15.953125 1.992188 10.914062 1.992188 Z M 10.914062 3.808594 C 11.429688 3.808594 11.929688 3.863281 12.414062 3.964844 C 12.824219 4.785156 13.164062 5.644531 13.429688 6.539062 L 8.402344 6.539062 C 8.664062 5.644531 9.007812 4.785156 9.414062 3.964844 C 9.898438 3.863281 10.402344 3.808594 10.914062 3.808594 Z M 8.210938 4.324219 C 7.898438 5.039062 7.632812 5.777344 7.421875 6.539062 L 5.226562 6.539062 C 6.003906 5.5625 7.03125 4.796875 8.210938 4.324219 Z M 13.621094 4.324219 C 14.800781 4.796875 15.824219 5.5625 16.605469 6.539062 L 14.40625 6.539062 C 14.195312 5.777344 13.933594 5.039062 13.621094 4.324219 Z M 4.605469 7.449219 L 7.195312 7.449219 C 6.972656 8.476562 6.839844 9.542969 6.8125 10.632812 L 3.652344 10.632812 C 3.722656 9.476562 4.0625 8.394531 4.605469 7.449219 Z M 8.164062 7.449219 L 13.667969 7.449219 C 13.90625 8.472656 14.046875 9.539062 14.074219 10.632812 L 7.753906 10.632812 C 7.785156 9.539062 7.925781 8.472656 8.164062 7.449219 Z M 14.632812 7.449219 L 17.222656 7.449219 C 17.769531 8.394531 18.105469 9.476562 18.179688 10.632812 L 15.019531 10.632812 C 14.992188 9.542969 14.859375 8.476562 14.632812 7.449219 Z M 3.652344 11.542969 L 6.8125 11.542969 C 6.839844 12.632812 6.972656 13.695312 7.195312 14.726562 L 4.605469 14.726562 C 4.0625 13.78125 3.722656 12.699219 3.652344 11.542969 Z M 7.753906 11.542969 L 14.074219 11.542969 C 14.046875 12.636719 13.90625 13.699219 13.667969 14.726562 L 8.164062 14.726562 C 7.925781 13.699219 7.785156 12.636719 7.753906 11.542969 Z M 15.019531 11.542969 L 18.179688 11.542969 C 18.105469 12.699219 17.769531 13.78125 17.222656 14.726562 L 14.632812 14.726562 C 14.859375 13.695312 14.992188 12.632812 15.019531 11.542969 Z M 5.226562 15.636719 L 7.421875 15.636719 C 7.632812 16.394531 7.898438 17.136719 8.210938 17.847656 C 7.03125 17.378906 6.003906 16.609375 5.226562 15.636719 Z M 8.402344 15.636719 L 13.429688 15.636719 C 13.164062 16.53125 12.824219 17.390625 12.414062 18.210938 C 11.929688 18.3125 11.429688 18.363281 10.914062 18.363281 C 10.402344 18.363281 9.898438 18.3125 9.414062 18.210938 C 9.007812 17.390625 8.664062 16.53125 8.402344 15.636719 Z M 14.40625 15.636719 L 16.605469 15.636719 C 15.824219 16.609375 14.800781 17.378906 13.621094 17.847656 C 13.933594 17.136719 14.195312 16.394531 14.40625 15.636719 Z M 14.40625 15.636719 "/>
</g>
</svg>
